X: 102
%
T: A Mhisg a chur an Nollaig Oirnn
T: Christmas Carousing
C:
O:Scotland
B:Keith Norman MacDonald : "The Skye collection of the best reels & strathspeys extant" : 1887
Z:Ralph Palmer
R:Reel
M:C
L:1/8
K:A
a | eAA<A BGGB | A<Afe dBBa | eAA<A BGGB | A<Afe d2 d :|
a| fdfa fdfa | eAef dBBf | fdfa fdfa | eAef d2 dg |
fdfa fdfa | eAef dBBe | daaf edef | gage d2 d |]
W:A Mhisg a chur an Nolig Oirn?


